actions/24/view-task.svg

<svg xmlns="http://www.w3.org/2000/svg" viewBox="0 0 24 24" width="24" height="24">
  <defs id="defs3051">
    <style type="text/css" id="current-color-scheme">
      .ColorScheme-Text {
        color:#eff0f1;
      }
      </style>
  </defs>
  <g transform="translate(1,1)">
    <path style="fill:currentColor;fill-opacity:1;stroke:none" d="m3 3v16h10 5 1v-6-10h-2v3h-2v-3h-8v3h-2v-3h-2m1 4h14v6 5h-5-9v-11m10.292969 2l-4.591797 4.591797-1.146484-1.146485-.707031.707032 1.845703 1.847656.005859-.007812.007812.007812 5.292969-5.292969-.707031-.707031" class="ColorScheme-Text"/>
  </g>
</svg>

<svg xmlns="http://www.w3.org/2000/svg" viewBox="0 0 24 24" width="24" height="24">
  <defs id="defs3051">
    <style type="text/css" id="current-color-scheme">.ColorScheme-Text {color:#fcfcfc;}</style>
  </defs>
  <g transform="translate(1,1)">
    <path style="fill:currentColor;fill-opacity:1;stroke:none" d="m 3,3 v 13 c 0,0 0,3 3,3 3,0 7,0 10,0 3,0 3,-3 3,-3 V 13 3 H 17 V 6 H 15 V 3 H 7 V 6 H 5 V 3 H 3 m 1,4 h 14 v 6 3 c 0,0 0,2 -2,2 C 14,18 8,18 6,18 4,18 4,16 4,16 V 7 M 14.292969,9 9.701172,13.591797 8.554688,12.445312 7.847657,13.152344 9.69336,15 9.699219,14.992188 9.707031,15 15,9.707031 14.292969,9" class="ColorScheme-Text"/>
  </g>
</svg>
